!!!COM:	la Rue, Pierre de
!!!CDT:	~1452///-1518/11/20
!!!OPR:	Missa Puer natus est nobis
!!!ONM:	4
!!!OTL:	Sanctus
!!!AGN:	Mass; Sanctus
!!!SCT:	Rue1025d
!!!SCA:	Rue1025d
!!!voices-OPR:	4
!!!voices:	4
**kern	**kern	**kern	**kern
*Ivox	*Ivox	*Ivox	*Ivox
*I"Bassus	*I"Tenor	*I"Contra	*I"Discantus
*I'B	*I'T	*I'C	*I'D
*staff4	*staff3	*staff2	*staff1
*>[A,B,C,D,C]	*>[A,B,C,D,C]	*>[A,B,C,D,C]	*>[A,B,C,D,C]
*>A	*>A	*>A	*>A
*clefF4	*clefGv2	*clefGv2	*clefG2
*k[b-]	*k[b-]	*k[b-]	*k[b-]
*M3/1	*M3/1	*M3/1	*M3/1
*met(O)	*met(O)	*met(O)	*met(O)
!!section: Sanctus
!!!OMD: Sanctus
=1-	=1-	=1-	=1-
0G	0.r	0G	0g
1B-	.	1G	1dd
=2	=2	=2	=2
1.B-	0.r	0d	1.dd
4A\	.	.	4cc\
4G\	.	.	4b-\
2F\	.	1d	2a/
2G\	.	.	2b-\
=3	=3	=3	=3
1C	0.r	0e	2.cc\
.	.	.	4b-\
2.c\	.	.	2a/
.	.	.	2g/
4B-\	.	.	.
2A\	.	1e	2cc\
2G\	.	.	2b-\
=4	=4	=4	=4
2.B-\	0.r	0d	2g/
.	.	.	1b-
4A\	.	.	.
2G\	.	.	.
2F\	.	.	2a/
2.A\	.	[1c	2.cc\
4G\	.	.	4b-\
=5	=5	=5	=5
2F\	0.r	1c]	2a/
2E\	.	.	2g/
1D	.	2r	2f/
.	.	1f	1dd
1r	.	.	.
.	.	2e\	2cc\
=6	=6	=6	=6
1r	0.r	2.g\	2.ee-\
.	.	4f\	4dd\
1r	.	2e\	2cc\
.	.	2d\	2b-\
2r	.	[1c	2a/
[2A\	.	.	[2cc\
=7	=7	=7	=7
2A\]	0.r	2c\]	2cc\]
2G\	.	2d\	2b-\
2.B-\	.	0d	2.dd\
4A\	.	.	4cc\
2G\	.	.	2b-\
2F\	.	.	2a/
=8	=8	=8	=8
1E	0.r	1r	1g
1D	.	2r	2f/
.	.	1d	2.b-\
1r	.	.	.
.	.	.	4a/
.	.	2c\	2a/
=9	=9	=9	=9
1C	0.r	2.e-i\	2.cc\
.	.	4d\	4b-\
2F\	.	2c\	2a/
2G\	.	2B-\	1g
1D	.	1A	.
.	.	.	2f#i/
=10	=10	=10	=10
1d	[0.G	0G	0.g
2d\	.	.	.
2.B-\	.	.	.
.	.	1r	.
4c\	.	.	.
2d\	.	.	.
=11	=11	=11	=11
2G\	0.G]	1d	1r
2.B-\	.	.	.
.	.	2d\	1r
4A\	.	.	.
4G\	.	2.B-\	.
4F\	.	.	.
1E	.	.	1g
.	.	4A/	.
.	.	2c\	.
=12	=12	=12	=12
1.D	0d	2F/	1.f
.	.	2.A/	.
.	.	4G/	.
2E\	.	1c	2e/
2F\	1d	.	1d
2G\	.	2Bni\	.
=13	=13	=13	=13
[0.C	[0.e	2c\	0c
.	.	1g	.
.	.	4f\	.
.	.	4e\	.
.	.	2a\	2r
.	.	2g\	[2g/
=14	=14	=14	=14
0.C]	0.e]	0c	2g/]
.	.	.	4f/
.	.	.	4e/
.	.	.	2a/
.	.	.	2g/
.	.	1G	2c/
.	.	.	2g/
=15	=15	=15	=15
2D\	0.d	0.r	2f/
2.F\	.	.	2.a/
4E\	.	.	4g/
4D\	.	.	4f/
4C/	.	.	4e/
2.BB-/	.	.	1f
4AA/	.	.	.
=16	=16	=16	=16
0C	0.c	0g	0e
1C	.	1e	1g
=17	=17	=17	=17
0F	0.c	1.f	0a
.	.	4e\	.
.	.	4d\	.
1A	.	2e\	1cc
.	.	2f\	.
=18	=18	=18	=18
2G\	0.r	2g\	2b-\
2F\	.	2.a\	1dd
1G	.	.	.
.	.	4g\	.
.	.	1g	4cc\
.	.	.	4b-\
1A	.	.	1cc
.	.	2f#i\	.
=19	=19	=19	=19
0.G	[0.d	0.g	0b-
.	.	.	1r
=20	=20	=20	=20
0D	0.d]	0.f	1.dd
.	.	.	4cc\
.	.	.	4b-\
1D	.	.	2a/
.	.	.	2f/
=21	=21	=21	=21
1.A	0c	0e	0cc
4G\	.	.	.
4F\	.	.	.
2E\	1e	1c	1r
2C/	.	.	.
=22	=22	=22	=22
0G	1d	2d\	1.b-
.	.	2B-\	.
.	0d	2.G/	.
.	.	.	4a/
.	.	4A/	4g/
1r	.	1B-	2f/
.	.	.	2d/
=23	=23	=23	=23
1.F	2.f\	0A	1.a
.	4e\	.	.
.	2c\	.	.
4E\	1d	.	4g/
4D\	.	.	4f/
1A	.	1r	1e
.	2c#i\	.	.
=24	=24	=24	=24
1D	0d	1A	2r
.	.	.	2d/
2r	.	2B-\	2.f/
2D\	.	2.A/	.
.	.	.	4g/
2F\	2r	.	2a/
.	.	4c\	.
2G\	2d\	2B-\	2b-\
=25	=25	=25	=25
2.A\	2c\	2A/	2cc\
.	2.e\	4c\	2g/
4B-\	.	4B-\	.
4c\	.	4A/	2a/
4B-\	4d\	4G/	.
4A\	1d	1g	2b-\
4G\	.	.	.
1A	.	.	1cc
.	2c\	2f#i\	.
=26	=26	=26	=26
0G	0d	2g\	1.b-
.	.	2G/	.
.	.	2.B-\	.
.	.	.	4a/
.	.	4c\	4g/
1D	2r	1A	1f
.	2d\	.	.
=27	=27	=27	=27
2E\	2c\	2G/	0g
2.G\	2.e\	2.B-\	.
4F\	4d\	4A/	.
4E\	1d	4G/	.
4D\	.	4F/	.
1E	.	1G	2r
.	2c#i\	.	2g/
=28	=28	=28	=28
2D\	[0.dl	2A/	2f/
2.F\	.	2D/	2.a/
.	.	2A/	.
4E\	.	.	4g/
2G\	.	2B-\	1g
1D	.	1A	.
.	.	.	2f#i/
=29	=29	=29	=29
0.Gl	0.d]	0.Gl	0.gl
!!LO:LB:i:g=z
=30||	=30||	=30||	=30||
*>B	*>B	*>B	*>B
*clefF4	*clefGv2	*clefGv2	*clefG2
*k[b-]	*k[b-]	*k[b-]	*k[b-]
*M3/1	*M3/1	*M3/1	*M3/1
*met(O|)	*met(O|)	*met(O|)	*met(O|)
!!section: Pleni sunt celi
!!!OMD: Pleni sunt celi
1G	0.r	0G	0.r
2G\	.	.	.
1B-	.	.	.
.	.	1d	.
4A\	.	.	.
4G\	.	.	.
=31	=31	=31	=31
2F\	0.r	1d	0.r
2.G\	.	.	.
.	.	[0e	.
4C/	.	.	.
1C	.	.	.
[2c\	.	.	.
=32	=32	=32	=32
2c\]	0.r	0e]	0.r
4B-\	.	.	.
4A\	.	.	.
2G\	.	.	.
2.c\	.	.	.
.	.	1c	.
4F\	.	.	.
2F\	.	.	.
=33	=33	=33	=33
0.r	0.r	2c\	0.a
.	.	1d	.
.	.	4c\	.
.	.	4B-\	.
.	.	2A/	.
.	.	[2d\	.
=34	=34	=34	=34
0.r	0.r	4d\]	[0.b-
.	.	4G/	.
.	.	1G	.
.	.	1g	.
.	.	4f\	.
.	.	4e\	.
=35	=35	=35	=35
1r	0.r	2d\	1b-]
.	.	2.g\	.
1C	.	.	1g
.	.	4c\	.
.	.	1c	.
2.F\	.	.	2.a/
.	.	2f\	.
4G\	.	.	4b-\
=36	=36	=36	=36
2A\	0.r	2e\	2cc\
1B-	.	2d\	1dd
.	.	0f	.
4A\	.	.	4cc\
4G\	.	.	4b-\
2F\	.	.	2a/
2D\	.	.	[2dd\
=37	=37	=37	=37
2.G\	0.r	1d	4dd\]
.	.	.	4g/
.	.	.	1g
4C/	.	.	.
0C	.	0e	.
.	.	.	1cc
.	.	.	4b-\
.	.	.	4a/
=38	=38	=38	=38
1C	0.r	1e	2g/
.	.	.	2.cc\
1D	.	2d\	.
.	.	.	4f/
.	.	4A/	2f/
.	.	4B-\	.
2C/	.	2c\	2a/
[2BB-/	.	[2d\	[2b-\
=39	=39	=39	=39
4BB-/]	0.r	2d\]	2b-\]
4C/	.	.	.
4D\	.	4c\	4a/
4E\	.	4B-\	4g/
2F\	.	2A/	2f/
2D\	.	2.d\	2.a/
2F\	.	.	.
.	.	4G/	4g/
2G\	.	2G/	[2g/
=40	=40	=40	=40
1D	0.r	1A	2g/]
.	.	.	2f#i/
2r	.	0G	1g
2.G\	.	.	.
.	.	.	2r
4A\	.	.	.
2B-\	.	.	[2g/
=41	=41	=41	=41
2c\	0.r	1r	4g/]
.	.	.	4a/
2d\	.	.	2b-\
2e-i\	.	0g	2cc\
2B-\	.	.	2dd\
2c\	.	.	2ee-i\
[2B-\	.	.	[2dd\
=42	=42	=42	=42
2B-\]	0.r	1g	2dd\]
4A\	.	.	4cc\
4G\	.	.	4b-\
0d	.	[0f	1a
.	.	.	2r
.	.	.	[2a/
=43	=43	=43	=43
0D	0.r	0f]	2a/]
.	.	.	4g/
.	.	.	4f/
.	.	.	2a/
.	.	.	2b-\
[1A	.	2.e\	2.cc\
.	.	4d\	4b-\
=44	=44	=44	=44
1A]	0.r	4e\	4cc\
.	.	4f\	4dd\
.	.	2.e\	2.cc\
1r	.	.	.
.	.	4f\	4dd\
.	.	4g\	4ee\
.	.	4a\	4ff\
1r	.	4g\	2ee\
.	.	4f\	.
.	.	4e\	[2dd\
.	.	4d\	.
=45	=45	=45	=45
2r	0.r	1e	4dd\]
.	.	.	4cc#i\
2A\	.	.	2cc#i\
2B-\	.	0d	0dd
2G\	.	.	.
2.B-\	.	.	.
4c\	.	.	.
=46	=46	=46	=46
1A	0.r	2r	1r
.	.	2e\	.
0D	.	2f\	1r
.	.	2d\	.
.	.	2.f\	1r
.	.	4g\	.
=47	=47	=47	=47
2r	0.r	1e	1r
2A\	.	.	.
2B-\	.	1d	1r
2G\	.	.	.
2.B-\	.	2r	1r
.	.	2d\	.
4c\	.	.	.
=48	=48	=48	=48
1A	0.r	2e\	2r
.	.	2f\	2a/
2G\	.	2g\	2b-\
2C/	.	2.e\	2g/
1G	.	.	2.b-\
.	.	4d\	.
.	.	[2g\	.
.	.	.	4cc\
=49	=49	=49	=49
1D	0.r	2g\]	1a
.	.	2f#i\	.
1r	.	1g	2g/
.	.	.	1dd
1r	.	2fi\	.
.	.	2e\	2cc\
=50	=50	=50	=50
1r	0.r	2.d\	2b-\
.	.	.	2.a/
.	.	8c\L	.
.	.	8B-\J	.
1r	.	2A/	.
.	.	.	8g/L
.	.	.	8f/J
.	.	4G/	2e/
.	.	4A/	.
2.D\	.	4B-\	4d/
.	.	4c\	4e/
.	.	[2d\	4f/
4E\	.	.	4g/
=51	=51	=51	=51
4F\	0.r	4d\]	2.a/
4G\	.	4e\	.
2.A\	.	4f\	.
.	.	4e\	4b-\
.	.	4c\	4cc\
4B-\	.	4d\	4b-\
4c\	.	4e\	4g/
4B-\	.	4f\	4a/
4G\	.	1g	4b-\
4A\	.	.	4cc\
4B-\	.	.	[2dd\
4c\	.	.	.
=52	=52	=52	=52
2d\	0.r	2f\	2dd\]
2A\	.	2e\	2cc\
2B-\	.	1d	2b-\
1F	.	.	2.a/
.	.	4c\	.
.	.	4B-\	4g/
2G\	.	4A/	[2g/
.	.	4G/	.
=53	=53	=53	=53
1D	0.r	1A	2g/]
.	.	.	2f#i/
0Gl	.	0Gl	0gl
!!LO:LB:i:g=z
=54||	=54||	=54||	=54||
*>C	*>C	*>C	*>C
*clefF4	*clefGv2	*clefGv2	*clefG2
*k[b-]	*k[b-]	*k[b-]	*k[b-]
*M2/1	*M2/1	*M2/1	*M2/1
*met(C|)	*met(C|)	*met(C|)	*met(C|)
!!section: Osanna
!!!OMD: Osanna
0r	0G	0r	0g
=55	=55	=55	=55
0G	[0d	0r	1.b-
.	.	.	4a/
.	.	.	4g/
=56	=56	=56	=56
1.B-	0d]	0d	1dd
.	.	.	1g
4A\	.	.	.
4G\	.	.	.
=57	=57	=57	=57
1d	0d	1.f	1r
1D	.	.	[1dd
.	.	4e\	.
.	.	4d\	.
=58	=58	=58	=58
1r	0d	1a	1dd]
1B-	.	1d	1dd
=59	=59	=59	=59
[0c	[0e	0g	1cc
.	.	.	[1ee
=60	=60	=60	=60
1c]	0e_	[0a	2ee\]
.	.	.	2dd\
1d	.	.	[1dd
=61	=61	=61	=61
0A	0e]	0a]	1dd]
.	.	.	1cc#i
=62	=62	=62	=62
[0D	[0d	2.f\	1.dd
.	.	4e\	.
.	.	4f\	.
.	.	4g\	.
.	.	[2a\	2cc\
=63	=63	=63	=63
0D]	0d_	2a\]	1b-
.	.	1g	.
.	.	.	1a
.	.	2f#i\	.
=64	=64	=64	=64
0G	0d]	0g	1b-
.	.	.	1g
=65	=65	=65	=65
2.A\	0c	2e\	2.cc\
.	.	2f\	.
4G\	.	.	4b-\
2E\	.	2g\	2g/
[2F\	.	[2f\	[2a/
=66	=66	=66	=66
4F\]	0c	2f\]	2a/]
4E\	.	.	.
4F\	.	4e\	4g/
4G\	.	4d\	4f/
1A	.	2c\	2e/
.	.	[2f\	[2a/
=67	=67	=67	=67
2D\	[0d	2f\]	2a/]
1d	.	2d\	1f
.	.	1d	.
[2B-\	.	.	2d/
=68	=68	=68	=68
2B-\]	0d_	0g	2d/
2G\	.	.	1dd
[1G	.	.	.
.	.	.	[2b-\
=69	=69	=69	=69
1G]	0d]	1g	2b-\]
.	.	.	2g/
1G	.	1g	1g
=70	=70	=70	=70
0C	1c	1e	2r
.	.	.	1cc
.	[1e	[1c	.
.	.	.	4b-\
.	.	.	4a/
=71	=71	=71	=71
1C	2e\]	2c\]	1g
.	2d\	2B-\	.
1D	[1d	1A	1f
=72	=72	=72	=72
0E-i	1d]	0G	0g
.	1c	.	.
=73	=73	=73	=73
1D	[0d	1A	1f
2BB-/	.	2B-\	2b-\
[2F\	.	[2d\	[2a/
=74	=74	=74	=74
2F\]	0d]	4d\]	2a/]
.	.	4c\	.
2G\	.	2B-\	1g
1D	.	1A	.
.	.	.	2f#i/
=75	=75	=75	=75
0G	0r	2G/	0g
.	.	2.d\	.
.	.	4c\	.
.	.	2d\	.
=76	=76	=76	=76
2r	0r	2B-\	0r
2.A\	.	2.c\	.
4G\	.	4B-\	.
2A\	.	2c\	.
=77	=77	=77	=77
2F\	0r	2A/	2r
2.B-\	.	1f	2.dd\
4A\	.	.	4cc\
2B-\	.	2f\	2dd\
=78	=78	=78	=78
2G\	0r	2g\	2b-\
2.A\	.	1e	2.cc\
4G\	.	.	4b-\
2A\	.	2e\	2cc\
=79	=79	=79	=79
2F\	0r	2f\	2a/
2.G\	.	1d	2.b-\
4F\	.	.	4a/
4E-i\	.	[2e-i\	[2cc\
4D\	.	.	.
=80	=80	=80	=80
2C/	0G	2e-\]	2cc\]
2D\	.	2.d\	4b-\
.	.	.	4a/
1E-i	.	.	1g
.	.	4B-\	.
.	.	2c\	.
=81	=81	=81	=81
0D	[0d	0F	0f
=82	=82	=82	=82
0BB-	0d]	0f	0b-
=83	=83	=83	=83
0D	[0d	0f	0a
=84	=84	=84	=84
0G	0d]	0B-	[0g
=85	=85	=85	=85
0C	0e	0c	0g]
=86	=86	=86	=86
0D	[0d	0A	0f
=87	=87	=87	=87
1F	0d]	0r	1a
1G	.	.	1b-
=88	=88	=88	=88
1A	0c	0r	1cc
1F	.	.	[1a
=89	=89	=89	=89
0G	0B-	1r	2a/]
.	.	.	4g/
.	.	.	4f/
.	.	1d	1g
=90	=90	=90	=90
1r	0A	1.f	0a
1D	.	.	.
.	.	4e\	.
.	.	4d\	.
=91	=91	=91	=91
1.F	0A	2c\	1r
.	.	1f	.
.	.	.	1a
4E\	.	2f\	.
4D\	.	.	.
=92	=92	=92	=92
2C/	1r	2e\	1.cc
1.F	.	1a	.
.	1A	.	.
.	.	2f\	4b-\
.	.	.	4a/
=93	=93	=93	=93
2E\	1c	2g\	2g/
2.F\	.	2.f\	2.a/
.	1c	.	.
4G\	.	4e\	4g/
2A\	.	2f\	[2cc\
=94	=94	=94	=94
1G	1d	1g	2cc\]
.	.	.	2bni\
1C	1c	1e	1cc
=95	=95	=95	=95
1.F	0r	1f	2cc\
.	.	.	1a
.	.	2c\	.
[2D\	.	[2f\	[2dd\
=96	=96	=96	=96
2D\]	1r	4f\]	2dd\]
.	.	4g\	.
2F\	.	2a\	2cc\
2G\	2r	2g\	2b-\
[2A\	[2e\	[2c\	[2cc\
=97	=97	=97	=97
2A\]	2e\]	2c\]	2cc\]
2B-\	2d\	1f	2b-\
2F\	2c\	.	2a/
[2B-\	[2d\	[2f\	[2b-\
=98	=98	=98	=98
2B-\]	2d\]	2f\]	2b-\]
2F\	2c\	2f\	2a/
2G\	2B-\	2d\	2g/
2C/	[2c\	2e\	[2a/
=99	=99	=99	=99
2D\	4c\]	2d\	4a/]
.	4B-\	.	4d/
2E-i\	2G/	2c\	1g
1D	1A	1d	.
.	.	.	2f#i/
=100	=100	=100	=100
0Gl	0Gl	0dl	0gl
!!LO:LB:i:g=z
!!LO:TX:rj:i:Y=40:t=fine
=101||	=101||	=101||	=101||
*>D	*>D	*>D	*>D
*clefF4	*clefGv2	*clefGv2	*clefG2
*k[b-]	*k[b-]	*k[b-]	*k[b-]
*M2/1	*M2/1	*M2/1	*M2/1
*met(C|)	*met(C|)	*met(C|)	*met(C|)
!!section: Benedictus
!!!OMD: Benedictus
0r	0r	1r	1g
.	.	1G	2g/
.	.	.	[2dd\
=102	=102	=102	=102
0r	0r	2G/	2dd\]
.	.	1d	4cc\
.	.	.	4b-\
.	.	.	2a/
.	.	4c\	2dd\
.	.	4B-\	.
=103	=103	=103	=103
0r	0r	2A/	2cc\
.	.	2d\	2.a/
.	.	2c\	.
.	.	.	4b-\
.	.	[2A/	2cc\
=104	=104	=104	=104
0r	0r	4A/]	2f/
.	.	4B-\	.
.	.	2c\	2.a/
.	.	2F/	.
.	.	.	4b-\
.	.	[2A/	[2cc\
=105	=105	=105	=105
0r	0r	4A/]	2cc\]
.	.	4B-\	.
.	.	4c\	4b-\
.	.	4d\	4a/
.	.	2e\	2g/
.	.	2f\	2a/
=106	=106	=106	=106
1G	0r	1g	1.b-
2G\	.	1G	.
[2d\	.	.	4a/
.	.	.	4g/
=107	=107	=107	=107
2d\]	0r	0r	2f/
4c\	.	.	2g/
4B-\	.	.	.
2A\	.	.	2a/
2d\	.	.	2b-\
=108	=108	=108	=108
2c\	0r	0r	2.cc\
2.A\	.	.	.
.	.	.	4b-\
.	.	.	4a/
4B-\	.	.	4g/
[2c\	.	.	[2a/
=109	=109	=109	=109
4c\]	0r	0r	2a/]
4B-\	.	.	.
4A\	.	.	1g
4G\	.	.	.
1A	.	.	.
.	.	.	2f#i/
=110	=110	=110	=110
0G	0r	1.d	0g
.	.	4c\	.
.	.	4B-\	.
=111	=111	=111	=111
2r	0r	2e-i\	0r
1G	.	1d	.
4F\	.	2g\	.
4E\	.	.	.
=112	=112	=112	=112
2A\	0r	2f\	0r
1G	.	2g\	.
.	.	2.e\	.
2c\	.	.	.
.	.	4f\	.
=113	=113	=113	=113
2B-\	0r	2g\	0r
2c\	.	2.a\	.
2A\	.	.	.
.	.	4g\	.
[2d\	.	2f\	.
=114	=114	=114	=114
2d\]	0r	1e	1r
2c#i\	.	.	.
1d	.	1d	1f
=115	=115	=115	=115
2B-\	0r	0r	1g
2.c\	.	.	.
.	.	.	[1a
4B-\	.	.	.
4A\	.	.	.
4G\	.	.	.
=116	=116	=116	=116
0F	0r	1r	1a]
.	.	1c	1cc
=117	=117	=117	=117
0r	0r	1d	2a/
.	.	.	2.b-\
.	.	1e	.
.	.	.	4a/
.	.	.	4g/
.	.	.	4f/
=118	=118	=118	=118
0r	0r	1g	4e/
.	.	.	4d/
.	.	.	1dd
.	.	1g	.
.	.	.	2b-\
=119	=119	=119	=119
0r	0r	2e\	2g/
.	.	2.f\	1a
.	.	4e\	.
.	.	4d\	[2b-\
.	.	4c\	.
=120	=120	=120	=120
1r	0r	2d\	2b-\]
.	.	1g	4a/
.	.	.	4g/
1D	.	.	1a
.	.	2f#i\	.
=121	=121	=121	=121
2E\	0r	0g	1g
2.C/	.	.	.
.	.	.	1r
4D\	.	.	.
2E\	.	.	.
=122	=122	=122	=122
2F\	0r	0r	1a
2D\	.	.	.
[1G	.	.	2b-\
.	.	.	[2g/
=123	=123	=123	=123
1G]	0r	1r	4g/]
.	.	.	4a/
.	.	.	2b-\
1F	.	1A	2cc\
.	.	.	2a/
=124	=124	=124	=124
2G\	0r	2B-\	0dd
2.B-\	.	2.G/	.
4A\	.	4A/	.
2G\	.	2B-\	.
=125	=125	=125	=125
2A\	0r	2c\	1cc
2F\	.	2A/	.
[1G	.	[1d	[1b-
=126	=126	=126	=126
1G]	0r	1d]	2b-\]
.	.	.	4a/
.	.	.	4g/
1r	.	1c	1a
=127	=127	=127	=127
0r	0r	1B-	2d/
.	.	.	1g
.	.	2G/	.
.	.	[2d\	2f/
=128	=128	=128	=128
1r	0r	2d\]	2g/
.	.	2c\	2a/
1G	.	2d\	2.b-\
.	.	2e\	.
.	.	.	4cc\
=129	=129	=129	=129
1.F	0r	0f	[0a
4E\	.	.	.
4D\	.	.	.
=130	=130	=130	=130
1D	0r	2r	0a_
.	.	1f	.
2r	.	.	.
[2F\	.	4e\	.
.	.	4d\	.
=131	=131	=131	=131
2F\]	0r	2c\	0a]
4E\	.	2d\	.
4D\	.	.	.
2C/	.	2e\	.
[2D\	.	2A/	.
=132	=132	=132	=132
4D\]	0r	2r	0r
4E\	.	.	.
4F\	.	1f	.
4G\	.	.	.
[1A	.	.	.
.	.	4e\	.
.	.	4d\	.
=133	=133	=133	=133
2A\]	0r	2c\	0r
1B-	.	2.d\	.
.	.	4e\	.
4A\	.	4f\	.
4G\	.	4g\	.
=134	=134	=134	=134
2F\	0r	2a\	1r
2G\	.	1g	.
1A	.	.	1a
.	.	2f#i\	.
=135	=135	=135	=135
1G	0r	0g	1.b-
2r	.	.	.
[2B-\	.	.	4a/
.	.	.	4g/
=136	=136	=136	=136
2B-\]	0r	0d	2f/
4A\	.	.	2g/
4G\	.	.	.
2F\	.	.	2a/
[2G\	.	.	2d/
=137	=137	=137	=137
4G\]	0r	1r	2r
4A\	.	.	.
4B-\	.	.	1b-
4c\	.	.	.
1d	.	1d	.
.	.	.	4a/
.	.	.	4g/
=138	=138	=138	=138
0r	0r	1.e-i	2f/
.	.	.	2.g/
.	.	.	4a/
.	.	4d\	4b-\
.	.	4c\	4cc\
=139	=139	=139	=139
0r	0r	2B-\	2dd\
.	.	2c\	1cc
.	.	1d	.
.	.	.	2b-\
=140	=140	=140	=140
2r	0r	1c	2cc\
1F	.	.	1a
.	.	2r	.
4E\	.	[2c\	4g/
4D\	.	.	4f/
=141	=141	=141	=141
2C/	0r	2c\]	2e/
2.D\	.	2A/	2.f/
.	.	1d	.
4E\	.	.	4g/
4F\	.	.	4a/
4G\	.	.	4b-\
=142	=142	=142	=142
2A\	0r	2c\	2cc\
1G	.	2d\	1b-
.	.	2B-\	.
2F\	.	[2c\	[2a/
=143	=143	=143	=143
1G	0r	4c\]	2a/]
.	.	4B-\	.
.	.	2G/	1g
1D	.	1A	.
.	.	.	2f#i/
=144	=144	=144	=144
1r	0r	[0Gl	[0gl
1G	.	.	.
=145	=145	=145	=145
0Gl	0r	0G]	0g]
!!LO:TX:i:Y=40:rj:t=Osanna ut supra
=||	=||	=||	=||
*-	*-	*-	*-
!!!RDF**kern: l=long note in original notation
!!!RDF**kern: i=editorial accidental
!!!ENC:	Chris Gage 11-16-2012
!!!END:	2013/08/01/
!!!EED:	Jesse Rodin
!!!EEV:	2013/08/09/
!!!ONB:	Translated from MusicXML and edited on 2013/08/02/ by Craig Sapp
!!muse2ps: T^@{OPR}^u^@{ONM}{. }@{OTL}^C^@{COM}^i2I150v85,85,85,150Q16
